public/img/htmlcsswtf_line3.svg

<svg fill="none" height="30" viewBox="0 0 86 30" width="86" xmlns="http://www.w3.org/2000/svg"><path d="m1.50424 4.25199v16.80801c0 1.6576-.27765 1.8772 1.29604 1.9036 6.96782.1171 13.77082 2.0141 20.61522 3.1186 12.0969 1.9523 24.1345 2.2793 36.3567 2.2141 6.2048-.0331 12.3964-.2501 18.5766-.8235 1.422-.132 4.2013.0285 5.4812-.8101.3795-.2487.2785-1.33.2835-1.566.061-2.8692-.065-5.7362-.2295-8.5998-.2072-3.6042-.243-7.19215-.243-10.80036 0-.46757.3353-2.17357-.3511-2.17357-5.1403 0-10.2989.60584-15.4445.70202-12.0719.22564-23.7845-2.22535-35.7761-2.83509-5.9737-.30375-11.9773.26476-17.9286.66152-2.3583.15722-4.67876.49952-7.04728.49952" stroke="#3dd7ac" stroke-linecap="round" stroke-linejoin="round" stroke-width="2"/></svg>

<svg width="86" height="30" viewBox="0 0 86 30" fill="none" xmlns="http://www.w3.org/2000/svg">
<path d="M1.50424 4.25199C1.50424 9.85468 1.50424 15.4574 1.50424 21.06C1.50424 22.7176 1.22659 22.9372 2.80028 22.9636C9.7681 23.0807 16.5711 24.9777 23.4155 26.0822C35.5124 28.0345 47.55 28.3615 59.7722 28.2963C65.977 28.2632 72.1686 28.0462 78.3488 27.4728C79.7708 27.3408 82.5501 27.5013 83.83 26.6627C84.2095 26.414 84.1085 25.3327 84.1135 25.0967C84.1745 22.2275 84.0485 19.3605 83.884 16.4969C83.6768 12.8927 83.641 9.30475 83.641 5.69654C83.641 5.22897 83.9763 3.52297 83.2899 3.52297C78.1496 3.52297 72.991 4.12881 67.8454 4.22499C55.7735 4.45063 44.0609 1.99964 32.0693 1.3899C26.0956 1.08615 20.092 1.65466 14.1407 2.05142C11.7824 2.20864 9.46194 2.55094 7.09342 2.55094" stroke="#3DD7AC" stroke-width="2" stroke-linecap="round" stroke-linejoin="round"/>
</svg>
